X:340
T:Old Mountaineer
C:Bill Monroe - Arr. Mike Compton
N:Transcribed by Mike Stangeland
R:bluegrass
L:1/8
Q:1/4=243
M:4/4
K:G
z8 | "G"eg gg g2 g2 | ga bb gd de | "F"=f2 fa fd cA | "D"BA Bd "G"BG [G2G,2] | 
eg gg g2 g2 | ga bb gd de | "F"=fe fa fd c^A | "D"BB Bd "G"BG [G2G,2] | eg gg g2 gf | 
ga bb gd de | "F"=ff fa fd c^A | "D"^AB Bd "G"BG [G2G,2] | eg gg g2 gg | ga bb gd de | 
"F"=ff fa fd c^A |: "D"^AB Bd "G"BG DB, | "G"B,C ^CD GF =F=C | "F"CC DE =FD EC | 
"G"B,C ^CD GF =FD | "D"DF Ad cA FD | "G"B,C ^CD GF =F=C | "F"CC DE =FD D2 | "G"gg =fa fd cA :| "D"^AB Bd "G"BG [G2G,2] | 
"G"[cD][dD] [dD][dD] [d2D2] [d2D2] | [dD][cD] [cD][dD] [c2D2] [d2D2] | [cD][dD] [dD][dD] [d4D4] | 
[cD][dD] [cD][dD] [cD]G G2 | [cD][dD] [dD][dD] [d4D4] | dc Bc dd gg | "G"gg =fa "F"fd cA | 
"D"A^A B"G"d BG [G2G,2] | "G"[cD][dD] [dD][dD] [d4D4] | [dD][AD] [cD][AD] [c2D2] [d2D2] | 
[cD][dD] [dD][dD] [d4D4] | [cD][dD] [cD][dD] [cD]G [G2G,2] | cd dd d4 | dc Bc dd gg | 
"G"g=f af "F"dc AA | "D"^AB dB "G"GD3 |: "G"[D2G,2] [DG,][DG,] [DG,][DG,] [DG,]B | 
c4 Bd d2 | [D2G,2] [DG,][DG,] [DG,][DG,] [DG,]B | cA Bd BG [G2G,2] | [D2G,2] [DG,][DG,] [DG,][DG,] [DG,]B | 
cc Bc dd dg | "G"gg =fa "F"fd cA | "D"^AB Bd "G"BG D2 :| 


